!!!COM:	Bach, Johann Sebastian
!!!OMV:	Von Gott will ich nicht lassen
!!!OTL:	Von Gott will ich nicht lassen
**kern	**fb	**kern	**kern	**kern	**kern
*part5	*part5	*part4	*part3	*part2	*part1
*staff5	*	*staff4	*staff3	*staff2	*staff1
*I"Continuo	*	*I"Voice	*I"Voice	*I"Voice	*I"Voice
*I'Cont.	*	*I'V	*I'V	*I'V	*I'V
*clefF4	*	*clefF4	*clefGv2	*clefG2	*clefG2
*Trd0c0	*	*	*	*	*
*k[b-e-]	*	*k[b-e-]	*k[b-e-]	*k[b-e-]	*k[b-e-]
*M4/4	*	*M4/4	*M4/4	*M4/4	*M4/4
4C	.	4C	4c	4e-	4g
=2	=2	=2	=2	=2	=2
4c	.	4c	4e-	4g	4cc
4Bn	6	4Bn	4d	4g	4dd
4c	.	4c	4c	4g	4ee-
4A	6	4A	4c	4f	4ff
=3	=3	=3	=3	=3	=3
4B-	.	4B-	4B-	8fL	2dd
.	.	.	.	8gJ	.
4F#X	6 5	4F#X	4A	4a	.
4G;	.	4G;	4d;	4g;	4b-;
4E-	.	4E-	4e-	4g	4b-
=4	=4	=4	=4	=4	=4
4A-X	.	4A-X	4c	4e-	4cc
4F	.	4Fn	4A-X	4f	4cc
4BBn	6 5	4BBn	4G	8fL	4dd
.	.	.	.	8a-XJ	.
4BB	.	4BB	4G	8gL	4dd
.	.	.	.	8fJ	.
=5	=5	=5	=5	=5	=5
2.C	.	2.C	2.c	2.e-	2.g
4C	.	4C	4c	4e-	4g
=6	=6	=6	=6	=6	=6
4c	.	4c	4e-	4g	4cc
4Bn	6	4Bn	4d	4g	4dd
4c	.	4c	4c	4g	4ee-
4A	6	4A	4c	4f	4ff
=7	=7	=7	=7	=7	=7
4B-	.	4B-	4B-	8fL	2dd
.	.	.	.	8gJ	.
4F#X	6 5	4F#X	4A	4a	.
4G;	.	4G;	4d;	4g;	4b-;
4E-	.	4E-	4e-	4g	4b-
=8	=8	=8	=8	=8	=8
!!linebreak:original
4A-X	.	4A-X	4c	4e-	4cc
4F	.	4F	4A-X	4f	4cc
4BBn	6 5	4BBn	4G	8fL	4dd
.	.	.	.	8a-X	.
4BB	.	4BB	4G	8g	4dd
.	.	.	.	8fJ	.
=9	=9	=9	=9	=9	=9
2.C	.	2.C	2.c	2.e-	2.g
4c	.	4c	4e-	4cc	4gg
=10	=10	=10	=10	=10	=10
4A-X	6	4A-X	4f	4cc	4ff
4F	7 5	4F	4a-X	4cc	4ee-
4B-	6 4	4B-	4g	4b-	4ee-
4BB-	5 3	4BB-	4f	4b-	4dd
=11	=11	=11	=11	=11	=11
2.E-;	.	2.E-;	2.g;	2.b-;	2.ee-;
4B-	.	4B-	4f	4b-	4dd
=12	=12	=12	=12	=12	=12
4G	6	4G	4.e-	4b-	4ee-
4F	6	4F	.	4a-X	4ff
.	.	.	[8d	.	.
4E-	.	4E-	8dL]	4b-	4gg
.	.	.	8B-J	.	.
4C	.	4C	8e-L	8ccL	4gg
.	.	.	8dJ	8b-J	.
=13	=13	=13	=13	=13	=13
2F	7	2F	8cL	8aL	2ff
.	.	.	8e-	8gJ	.
.	6	.	8d	4a	.
.	5	.	8cJ	.	.
4BB-;	.	4BB-;	4B-;	4f;	4dd;
4B-	.	4B-	4f	4b-	4dd
=14	=14	=14	=14	=14	=14
4G	6	4G	4e-	4b-	4ee-
4E-	7 5	4E-	4B-	4g	4dd
4A-X	.	4A-X	8cL	4e-	4cc
.	.	.	8dJ	.	.
4G	5 4 -r2	4G	4e-	[4a-X	4cc
=15	=15	=15	=15	=15	=15
!!pagebreak:original
4F	6	4F	4f	8a-L]	4dd
.	.	.	.	8gJ	.
4F#X	-r7 5	4F#X	4e-	4an	4cc
4G;	.	4G;	4d;	4g;	4b-;
4D	6 5	4D	4B-	4f	4a-X
=16	=16	=16	=16	=16	=16
4E-	.	4E-	4B-	4e-	4g
4A-X	6	4A-X	8cL	4f	4cc
.	.	.	8dJ	.	.
4G	6 4	4G	8e-	4g	4cc
.	.	.	16dLL	.	.
.	.	.	16cJJ	.	.
4GG	5 n	4GG	8dL	4g	4bn
.	.	.	8fJ	.	.
=17	=17	=17	=17	=17	=17
2.C;	n	2.C;	2.en;	2.g;	2.cc;
=||	=||	=||	=||	=||	=||
*-	*-	*-	*-	*-	*-
!!!system-decoration: s1,s2,s3,s4,s5
